svg/device/sandglass_2_line.svg

<svg xmlns="http://www.w3.org/2000/svg" width="24" height="24" viewBox="0 0 24 24"><g fill="none" fill-rule="evenodd"><path d="M24,0 L24,24 L0,24 L0,0 L24,0 Z M12.5935,23.2578 L12.5819,23.2595 L12.5109,23.295 L12.4919,23.2987 L12.4767,23.295 L12.4057,23.2595 C12.3958,23.2564 12.387,23.259 12.3821,23.2649 L12.378,23.2758 L12.3609,23.7031 L12.3659,23.7235 L12.3769,23.7357 L12.4805,23.8097 L12.4953,23.8136 L12.5071,23.8097 L12.6107,23.7357 L12.6233,23.7197 L12.6267,23.7031 L12.6096,23.2758 C12.6076,23.2657 12.601,23.2593 12.5935,23.2578 Z M12.8584,23.1453 L12.8445,23.1473 L12.6598,23.2397 L12.6499,23.2499 L12.6472,23.2611 L12.6651,23.6906 L12.6699,23.7034 L12.6784,23.7105 L12.8793,23.8032 C12.8914,23.8069 12.9022,23.803 12.9078,23.7952 L12.9118,23.7812 L12.8777,23.1665 C12.8753,23.1546 12.8674,23.147 12.8584,23.1453 Z M12.143,23.1473 C12.1332,23.1424 12.1222,23.1453 12.1156,23.1526 L12.1099,23.1665 L12.0758,23.7812 C12.0751,23.7927 12.0828,23.8019 12.0926,23.8046 L12.1083,23.8032 L12.3092,23.7105 L12.3186,23.7024 L12.3225,23.6906 L12.3404,23.2611 L12.3372,23.2485 L12.3278,23.2397 L12.143,23.1473 Z"/><path fill="#09244B" d="M5,4 C5,2.89543 5.89543,2 7,2 L17,2 C18.1046,2 19,2.89543 19,4 L19,5 C19,6.44123 18.391,7.98445 17.5992,9.31588 C17.0134,10.3008 16.2899,11.2334 15.5336,12 C16.2899,12.7666 17.0134,13.6992 17.5992,14.6841 C18.391,16.0156 19,17.5588 19,19 L19,20 C19,21.1046 18.1046,22 17,22 L7,22 C5.89543,22 5,21.1046 5,20 L5,19 C5,17.5588 5.60904,16.0156 6.40084,14.6841 C6.98655,13.6992 7.7101,12.7666 8.46636,12 C7.7101,11.2334 6.98655,10.3008 6.40084,9.31588 C5.60904,7.98445 5,6.44123 5,5 L5,4 Z M17,4 L7,4 L7,5 C7,5.92893 7.41414,7.10695 8.11983,8.29361 C8.81613,9.46446 9.72883,10.5299 10.5781,11.2271 C10.8095,11.417 10.9436,11.7006 10.9436,12 C10.9436,12.2994 10.8095,12.583 10.5781,12.7729 C9.72883,13.4701 8.81613,14.5355 8.11983,15.7064 C7.41414,16.893 7,18.0711 7,19 L7,20 L17,20 L17,19 C17,18.0711 16.5859,16.893 15.8802,15.7064 C15.1839,14.5355 14.2712,13.4701 13.4219,12.7729 C13.1905,12.583 13.0564,12.2994 13.0564,12 C13.0564,11.7006 13.1905,11.417 13.4219,11.2271 C14.2712,10.5299 15.1839,9.46446 15.8802,8.29361 C16.5859,7.10695 17,5.92893 17,5 L17,4 Z"/></g></svg>

<svg xmlns="http://www.w3.org/2000/svg" width="24" height="24"><g fill="none" fill-rule="evenodd"><path d="M24 0v24H0V0zM12.594 23.258l-.012.002-.071.035-.02.004-.014-.004-.071-.036c-.01-.003-.019 0-.024.006l-.004.01-.017.428.005.02.01.013.104.074.015.004.012-.004.104-.074.012-.016.004-.017-.017-.427c-.002-.01-.009-.017-.016-.018m.264-.113-.014.002-.184.093-.01.01-.003.011.018.43.005.012.008.008.201.092c.012.004.023 0 .029-.008l.004-.014-.034-.614c-.003-.012-.01-.02-.02-.022m-.715.002a.023.023 0 0 0-.027.006l-.006.014-.034.614c0 .012.007.02.017.024l.015-.002.201-.093.01-.008.003-.011.018-.43-.003-.012-.01-.01z"/><path fill="#09244B" d="M5 4a2 2 0 0 1 2-2h10a2 2 0 0 1 2 2v1c0 1.441-.609 2.984-1.4 4.316A14.3 14.3 0 0 1 15.533 12a14.3 14.3 0 0 1 2.065 2.684C18.391 16.016 19 17.56 19 19v1a2 2 0 0 1-2 2H7a2 2 0 0 1-2-2v-1c0-1.441.609-2.984 1.4-4.316A14.298 14.298 0 0 1 8.467 12c-.756-.767-1.48-1.7-2.065-2.684C5.609 7.984 5 6.44 5 5zm12 0H7v1c0 .929.414 2.107 1.12 3.294.696 1.17 1.609 2.236 2.458 2.933a1 1 0 0 1 0 1.546c-.85.697-1.762 1.763-2.458 2.933C7.414 16.893 7 18.071 7 19v1h10v-1c0-.929-.414-2.107-1.12-3.294-.696-1.17-1.609-2.236-2.458-2.933a1 1 0 0 1 0-1.546c.85-.697 1.762-1.763 2.458-2.933C16.586 7.107 17 5.929 17 5z"/></g></svg>
